X:0166
T:Colr. Archd. Campbells Quick Step.
M:6/8
L:1/8
Q:3/8=96
P:ABA % Aird prints a da capo
I: :: ||
Z:Jack Campin * www.campin.me.uk * 2009
K:D
P:A
A   |d2e f2a|gec d2A|BdB cec|dAF D2
A   |d2e f2a|gec d2A|BdB cec|ded d2:|
P:B
f/d/|efe e2c|dfa g2e|efg faf|def e2:|
<end>
<start>
